dist/img/pages/crowdfunding-page/arrows.svg

<svg width="27" height="50" viewBox="0 0 27 50" fill="none" xmlns="http://www.w3.org/2000/svg">
<path d="M26.553 10.1975C27.0149 9.73572 27.0149 8.98694 26.553 8.52511L19.0271 0.999127C18.5652 0.537295 17.8164 0.537295 17.3546 0.999127C16.8928 1.46096 16.8928 2.20974 17.3546 2.67157L24.0444 9.36133L17.3546 16.0511C16.8928 16.5129 16.8928 17.2617 17.3546 17.7235C17.8164 18.1854 18.5652 18.1854 19.0271 17.7235L26.553 10.1975ZM2.06494 10.5439H25.7168V8.17873H2.06494V10.5439Z" fill="white"/>
<path d="M1.2287 40.0622C0.766869 40.524 0.766869 41.2728 1.2287 41.7347L8.75468 49.2606C9.21651 49.7225 9.96529 49.7225 10.4271 49.2606C10.889 48.7988 10.889 48.05 10.4271 47.5882L3.73736 40.8984L10.4271 34.2087C10.889 33.7468 10.889 32.9981 10.4271 32.5362C9.96529 32.0744 9.21651 32.0744 8.75468 32.5362L1.2287 40.0622ZM25.7168 39.7158H2.06492V42.081H25.7168V39.7158Z" fill="white"/>
</svg>

<svg width="27" height="50" viewBox="0 0 27 50" fill="none" xmlns="http://www.w3.org/2000/svg"><path d="M26.553 10.197a1.182 1.182 0 000-1.672L19.027 1a1.183 1.183 0 00-1.672 1.673l6.69 6.69-6.69 6.69a1.183 1.183 0 001.672 1.672l7.526-7.527zm-24.488.347h23.652V8.179H2.065v2.365zm-.836 29.518a1.183 1.183 0 000 1.673l7.526 7.526a1.182 1.182 0 101.672-1.673l-6.69-6.69 6.69-6.69a1.183 1.183 0 10-1.672-1.672l-7.526 7.526zm24.488-.346H2.065v2.365h23.652v-2.365z" fill="#fff"/></svg>
